X:104
T: Die erzwungene Ehe
N: Q1050B
O: Suedosteuropa, Rumaenien, Siebenbuergen
N: Melodievergleich zu Q0050, anderes Lied.
R: Hochzeits - Lied, Brauchtum
M: 3/8
L: 1/16
K: D
DE | =F2E2DE | D2=CC=F2 | A2=F2G2 | A4
(3GAG | =F4=CF | D4GA | =F4E2 | D2z2

@@@ Tune index: 840
